X: 17145
T: Hello World
R: reel
M: 4/4
K: Gmajor
g4 edBG|~A3 G ABGE|G3 B EDDE|~G3 B AGBd|
e3 g f2 ed|~e3 d B2 AG|~A3 G B2 AG|1 BA G2 G2 Bd:|2 BA G2 G2 ag||
f3 d ~B3 g|feed B2 z g|fefe fagf|gfed A z ag|f3 d ~B3 g|
feed B3 g|1 fefe fagf|gfed e z ag:|2 fefg agfa|gf d2 f2 ef||

